public/images/languages/dart.svg

<svg xmlns="http://www.w3.org/2000/svg" xml:space="preserve" style="fill-rule:evenodd;clip-rule:evenodd;stroke-linejoin:round;stroke-miterlimit:2" viewBox="0 0 2400 1600"><path d="M0 0h2400v1600H0z" style="fill:#025"/><path d="M209.04 21.15h27.55c9.35 0 17.51 1.93 24.49 5.8 6.97 3.87 12.33 9.25 16.07 16.13 3.74 6.89 5.61 14.79 5.61 23.72s-1.87 16.83-5.61 23.72-9.1 12.26-16.07 16.13-15.13 5.8-24.49 5.8h-27.55zm27.55 80.99c10.8 0 19.36-3.1 25.7-9.31 6.33-6.21 9.5-14.88 9.5-26.02s-3.17-19.81-9.5-26.02-14.9-9.31-25.7-9.31h-16.83v70.65h16.83zm62.87 9.56c-3.74-1.87-6.63-4.44-8.67-7.72q-3.06-4.905-3.06-11.16c0-6.89 2.59-12.26 7.78-16.13 5.18-3.87 11.73-5.8 19.64-5.8 3.91 0 7.54.43 10.9 1.28s5.93 1.83 7.72 2.93v-3.95q0-7.275-5.1-11.67c-3.4-2.93-7.7-4.4-12.88-4.4-3.66 0-7.01.79-10.08 2.36-3.06 1.57-5.48 3.76-7.27 6.57l-8.16-6.12c2.55-3.91 6.06-6.97 10.52-9.18s9.42-3.32 14.86-3.32c8.84 0 15.79 2.32 20.85 6.95 5.06 4.64 7.59 10.95 7.59 18.94v41.19h-10.34v-9.31h-.51c-1.87 3.15-4.68 5.82-8.42 8.03s-7.95 3.32-12.63 3.32c-4.75 0-9-.94-12.74-2.81m23.97-9.56c3.14-1.87 5.65-4.38 7.52-7.52s2.81-6.59 2.81-10.33c-2.04-1.36-4.55-2.47-7.52-3.32-2.98-.85-6.12-1.28-9.44-1.28-5.95 0-10.44 1.23-13.45 3.7-3.02 2.47-4.53 5.66-4.53 9.56q0 5.355 4.08 8.67c2.72 2.21 6.16 3.32 10.33 3.32 3.66 0 7.06-.93 10.2-2.8m32.1-53.69h10.33v10.33h.51c1.53-3.83 4.12-6.8 7.78-8.93 3.65-2.12 7.65-3.19 11.99-3.19 1.87 0 3.44.13 4.72.38v11.1c-1.45-.34-3.4-.51-5.87-.51-5.53 0-10.01 1.83-13.45 5.48-3.44 3.66-5.17 8.42-5.17 14.28v36.09h-10.84zm67.32 64.76c-2.25-.86-4.14-2.03-5.68-3.51-1.7-1.64-2.98-3.55-3.83-5.71s-1.28-4.8-1.28-7.92V57.25h-11.35v-9.82h11.35V29.07h10.84v18.36h15.81v9.82H422.9v36.24c0 3.65.68 6.34 2.04 8.08 1.61 1.91 3.95 2.87 7.01 2.87 2.46 0 4.85-.72 7.14-2.17v10.59c-1.28.59-2.57 1.02-3.89 1.28s-3 .38-5.04.38c-2.61-.01-5.05-.45-7.31-1.31" style="fill:#fff;fill-rule:nonzero" transform="translate(298.627 518.275)scale(4.06941)"/><path d="M31.65 109.5 8.38 86.23C5.62 83.4 3.91 79.4 3.91 75.49c0-1.81 1.02-4.64 1.79-6.26l21.48-44.74z" style="fill:#01579b;fill-rule:nonzero" transform="translate(298.627 518.275)scale(4.06941)"/><path d="M111.3 28.96 88.03 5.69C86 3.65 81.77 1.22 78.19 1.22c-3.08 0-6.1.62-8.05 1.79L27.19 24.49zM59.39 137.24h56.38v-24.16L73.71 99.65l-38.48 13.43z" style="fill:#40c4ff;fill-rule:nonzero" transform="translate(298.627 518.275)scale(4.06941)"/><path d="M27.18 96.97c0 7.18.9 8.94 4.47 12.53l3.58 3.58h80.54L76.4 68.34 27.18 24.49z" style="fill:#29b6f6;fill-rule:nonzero" transform="translate(298.627 518.275)scale(4.06941)"/><path d="M98.77 24.48H27.18l88.59 88.59h24.16V57.59l-28.64-28.64c-4.02-4.03-7.59-4.47-12.52-4.47" style="fill:#01579b;fill-rule:nonzero" transform="translate(298.627 518.275)scale(4.06941)"/><path d="M32.55 110.39c-3.58-3.59-4.47-7.13-4.47-13.42V25.38l-.89-.89v72.48c-.01 6.29-.01 8.03 5.36 13.42l2.68 2.68z" style="fill:#fff;fill-opacity:.2;fill-rule:nonzero" transform="translate(298.627 518.275)scale(4.06941)"/><path d="M139.04 56.7v55.48h-24.16l.89.9h24.16V57.59z" style="fill:#263238;fill-opacity:.2;fill-rule:nonzero" transform="translate(298.627 518.275)scale(4.06941)"/><path d="M111.3 28.96c-4.44-4.44-8.07-4.47-13.42-4.47H27.19l.89.89h69.8c2.67 0 9.41-.45 13.42 3.58" style="fill:#fff;fill-opacity:.2;fill-rule:nonzero" transform="translate(298.627 518.275)scale(4.06941)"/><path d="M139.04 56.7 88.03 5.69C86 3.65 81.77 1.22 78.19 1.22c-3.08 0-6.1.62-8.05 1.79L27.19 24.49 5.71 69.23c-.77 1.63-1.79 4.46-1.79 6.26 0 3.91 1.72 7.9 4.47 10.74l21.44 21.29c.51.63 1.11 1.27 1.82 1.98l27.73 27.73h56.37v-24.16h24.16V57.59z" style="fill:url(#a);fill-rule:nonzero" transform="translate(298.627 518.275)scale(4.06941)"/><defs><radialGradient id="a" cx="0" cy="0" r="1" gradientTransform="matrix(68 0 0 -68 71.915 69.227)" gradientUnits="userSpaceOnUse"><stop offset="0" style="stop-color:white;stop-opacity:.02"/><stop offset="1" style="stop-color:white;stop-opacity:0"/></radialGradient></defs></svg>

<?xml version="1.0" encoding="UTF-8" standalone="no"?>
<svg
   width="100%"
   height="100%"
   viewBox="0 0 2400 1600"
   version="1.1"
   xml:space="preserve"
   style="fill-rule:evenodd;clip-rule:evenodd;stroke-linejoin:round;stroke-miterlimit:2;"
   id="svg282"
   sodipodi:docname="dart.svg"
   inkscape:version="1.2.2 (b0a8486541, 2022-12-01, custom)"
   xmlns:inkscape="http://www.inkscape.org/namespaces/inkscape"
   xmlns:sodipodi="http://sodipodi.sourceforge.net/DTD/sodipodi-0.dtd"
   xmlns="http://www.w3.org/2000/svg"
   xmlns:svg="http://www.w3.org/2000/svg"><sodipodi:namedview
   id="namedview284"
   pagecolor="#ffffff"
   bordercolor="#000000"
   borderopacity="0.25"
   inkscape:showpageshadow="2"
   inkscape:pageopacity="0.0"
   inkscape:pagecheckerboard="0"
   inkscape:deskcolor="#d1d1d1"
   showgrid="false"
   inkscape:zoom="0.54583333"
   inkscape:cx="1200"
   inkscape:cy="949.92366"
   inkscape:window-width="1024"
   inkscape:window-height="1088"
   inkscape:window-x="0"
   inkscape:window-y="27"
   inkscape:window-maximized="0"
   inkscape:current-layer="svg282" />
    <rect
   x="0"
   y="0"
   width="2400"
   height="1600"
   style="fill:#002255"
   id="rect241" />
    <g
   transform="matrix(4.06941,0,0,4.06941,298.627,518.275)"
   id="g245">
        <path
   d="M209.04,21.15L236.59,21.15C245.94,21.15 254.1,23.08 261.08,26.95C268.05,30.82 273.41,36.2 277.15,43.08C280.89,49.97 282.76,57.87 282.76,66.8C282.76,75.73 280.89,83.63 277.15,90.52C273.41,97.41 268.05,102.78 261.08,106.65C254.11,110.52 245.95,112.45 236.59,112.45L209.04,112.45L209.04,21.15ZM236.59,102.14C247.39,102.14 255.95,99.04 262.29,92.83C268.62,86.62 271.79,77.95 271.79,66.81C271.79,55.67 268.62,47 262.29,40.79C255.96,34.58 247.39,31.48 236.59,31.48L219.76,31.48L219.76,102.13L236.59,102.13L236.59,102.14Z"
   style="fill:white;fill-rule:nonzero;"
   id="path243" />
    </g>
    <g
   transform="matrix(4.06941,0,0,4.06941,298.627,518.275)"
   id="g249">
        <path
   d="M299.46,111.7C295.72,109.83 292.83,107.26 290.79,103.98C288.75,100.71 287.73,96.99 287.73,92.82C287.73,85.93 290.32,80.56 295.51,76.69C300.69,72.82 307.24,70.89 315.15,70.89C319.06,70.89 322.69,71.32 326.05,72.17C329.41,73.02 331.98,74 333.77,75.1L333.77,71.15C333.77,66.3 332.07,62.41 328.67,59.48C325.27,56.55 320.97,55.08 315.79,55.08C312.13,55.08 308.78,55.87 305.71,57.44C302.65,59.01 300.23,61.2 298.44,64.01L290.28,57.89C292.83,53.98 296.34,50.92 300.8,48.71C305.26,46.5 310.22,45.39 315.66,45.39C324.5,45.39 331.45,47.71 336.51,52.34C341.57,56.98 344.1,63.29 344.1,71.28L344.1,112.47L333.76,112.47L333.76,103.16L333.25,103.16C331.38,106.31 328.57,108.98 324.83,111.19C321.09,113.4 316.88,114.51 312.2,114.51C307.45,114.51 303.2,113.57 299.46,111.7ZM323.43,102.14C326.57,100.27 329.08,97.76 330.95,94.62C332.82,91.48 333.76,88.03 333.76,84.29C331.72,82.93 329.21,81.82 326.24,80.97C323.26,80.12 320.12,79.69 316.8,79.69C310.85,79.69 306.36,80.92 303.35,83.39C300.33,85.86 298.82,89.05 298.82,92.95C298.82,96.52 300.18,99.41 302.9,101.62C305.62,103.83 309.06,104.94 313.23,104.94C316.89,104.94 320.29,104.01 323.43,102.14Z"
   style="fill:white;fill-rule:nonzero;"
   id="path247" />
    </g>
    <g
   transform="matrix(4.06941,0,0,4.06941,298.627,518.275)"
   id="g253">
        <path
   d="M355.53,48.45L365.86,48.45L365.86,58.78L366.37,58.78C367.9,54.95 370.49,51.98 374.15,49.85C377.8,47.73 381.8,46.66 386.14,46.66C388.01,46.66 389.58,46.79 390.86,47.04L390.86,58.14C389.41,57.8 387.46,57.63 384.99,57.63C379.46,57.63 374.98,59.46 371.54,63.11C368.1,66.77 366.37,71.53 366.37,77.39L366.37,113.48L355.53,113.48L355.53,48.45ZM422.85,113.21C420.6,112.35 418.71,111.18 417.17,109.7C415.47,108.06 414.19,106.15 413.34,103.99C412.49,101.83 412.06,99.19 412.06,96.07L412.06,57.25L400.71,57.25L400.71,47.43L412.06,47.43L412.06,29.07L422.9,29.07L422.9,47.43L438.71,47.43L438.71,57.25L422.9,57.25L422.9,93.49C422.9,97.14 423.58,99.83 424.94,101.57C426.55,103.48 428.89,104.44 431.95,104.44C434.41,104.44 436.8,103.72 439.09,102.27L439.09,112.86C437.81,113.45 436.52,113.88 435.2,114.14C433.88,114.4 432.2,114.52 430.16,114.52C427.55,114.51 425.11,114.07 422.85,113.21Z"
   style="fill:white;fill-rule:nonzero;"
   id="path251" />
    </g>
    <g
   transform="matrix(4.06941,0,0,4.06941,298.627,518.275)"
   id="g273">
        <path
   d="M31.65,109.5L8.38,86.23C5.62,83.4 3.91,79.4 3.91,75.49C3.91,73.68 4.93,70.85 5.7,69.23L27.18,24.49L31.65,109.5Z"
   style="fill:rgb(1,87,155);fill-rule:nonzero;"
   id="path255" />
        <path
   d="M111.3,28.96L88.03,5.69C86,3.65 81.77,1.22 78.19,1.22C75.11,1.22 72.09,1.84 70.14,3.01L27.19,24.49L111.3,28.96Z"
   style="fill:rgb(64,196,255);fill-rule:nonzero;"
   id="path257" />
        <path
   d="M59.39,137.24L115.77,137.24L115.77,113.08L73.71,99.65L35.23,113.08L59.39,137.24Z"
   style="fill:rgb(64,196,255);fill-rule:nonzero;"
   id="path259" />
        <path
   d="M27.18,96.97C27.18,104.15 28.08,105.91 31.65,109.5L35.23,113.08L115.77,113.08L76.4,68.34L27.18,24.49L27.18,96.97Z"
   style="fill:rgb(41,182,246);fill-rule:nonzero;"
   id="path261" />
        <path
   d="M98.77,24.48L27.18,24.48L115.77,113.07L139.93,113.07L139.93,57.59L111.29,28.95C107.27,24.92 103.7,24.48 98.77,24.48Z"
   style="fill:rgb(1,87,155);fill-rule:nonzero;"
   id="path263" />
        <path
   d="M32.55,110.39C28.97,106.8 28.08,103.26 28.08,96.97L28.08,25.38L27.19,24.49L27.19,96.97C27.18,103.26 27.18,105 32.55,110.39L35.23,113.07L32.55,110.39Z"
   style="fill:white;fill-opacity:0.2;fill-rule:nonzero;"
   id="path265" />
        <path
   d="M139.04,56.7L139.04,112.18L114.88,112.18L115.77,113.08L139.93,113.08L139.93,57.59L139.04,56.7Z"
   style="fill:rgb(38,50,56);fill-opacity:0.2;fill-rule:nonzero;"
   id="path267" />
        <path
   d="M111.3,28.96C106.86,24.52 103.23,24.49 97.88,24.49L27.19,24.49L28.08,25.38L97.88,25.38C100.55,25.38 107.29,24.93 111.3,28.96Z"
   style="fill:white;fill-opacity:0.2;fill-rule:nonzero;"
   id="path269" />
        <path
   d="M139.04,56.7L88.03,5.69C86,3.65 81.77,1.22 78.19,1.22C75.11,1.22 72.09,1.84 70.14,3.01L27.19,24.49L5.71,69.23C4.94,70.86 3.92,73.69 3.92,75.49C3.92,79.4 5.64,83.39 8.39,86.23L29.83,107.52C30.34,108.15 30.94,108.79 31.65,109.5L59.38,137.23L115.75,137.23L115.75,113.07L139.91,113.07L139.91,57.59L139.04,56.7Z"
   style="fill:url(#_Radial1);fill-rule:nonzero;"
   id="path271" />
    </g>
    <defs
   id="defs280">
        <radialGradient
   id="_Radial1"
   cx="0"
   cy="0"
   r="1"
   gradientUnits="userSpaceOnUse"
   gradientTransform="matrix(68,0,0,-68,71.915,69.2272)"><stop
     offset="0"
     style="stop-color:white;stop-opacity:0.02"
     id="stop275" /><stop
     offset="1"
     style="stop-color:white;stop-opacity:0"
     id="stop277" /></radialGradient>
    </defs>
</svg>
